X: 64
T:Peat Fire Flame
% Nottingham Music Database
S:via PR
M:4/4
L:1/4
K:Em
"Em"E3/2F/2 GF|ED B2|"D"BA AG/2A/2|BA AB|"Em"E3/2F/2 GF|"Em"ED B3/2A/2|\
"Em"GE "Bm"FD|"Em"E2 E2::
"G"G3/2A/2 Bg/2f/2|ed B2|"D"BA AG/2A/2|BA AB|"G"G3/2A/2 Bg/2f/2|ed B3/2A/2|\
"Em"GE "Bm"FD|"Em"E2 E2:|


